material/.icons/material/inbox-multiple-outline.svg

<svg xmlns="http://www.w3.org/2000/svg" viewBox="0 0 24 24"><path d="M19 3a2 2 0 012 2v7a2 2 0 01-2 2H5a2 2 0 01-2-2V5a2 2 0 012-2h14M5 10v2h4.4c-.6-.53-1.06-1.22-1.27-2H5m14 2v-2h-3.13c-.21.78-.67 1.47-1.27 2H19m0-4V5H5v3h5v1c0 1.07.93 2 2 2 1.07 0 2-.93 2-2V8h5m2 11a2 2 0 01-2 2H5a2 2 0 01-2-2v-4h7v1c0 1.07.93 2 2 2 1.07 0 2-.93 2-2v-1h7v4M5 17v2h4.4c-.6-.53-1.06-1.22-1.27-2H5m14 2v-2h-3.13c-.21.78-.67 1.47-1.27 2H19z"/></svg>

<?xml version="1.0" encoding="UTF-8"?><!DOCTYPE svg PUBLIC "-//W3C//DTD SVG 1.1//EN" "http://www.w3.org/Graphics/SVG/1.1/DTD/svg11.dtd"><svg xmlns="http://www.w3.org/2000/svg" xmlns:xlink="http://www.w3.org/1999/xlink" version="1.1" id="mdi-inbox-multiple-outline" width="24" height="24" viewBox="0 0 24 24"><path d="M19,3A2,2 0 0,1 21,5V12A2,2 0 0,1 19,14H5A2,2 0 0,1 3,12V5A2,2 0 0,1 5,3H19M5,10V12H9.4C8.8,11.47 8.34,10.78 8.13,10H5M19,12V10H15.87C15.66,10.78 15.2,11.47 14.6,12H19M19,8V5H5V8H10V9C10,10.07 10.93,11 12,11C13.07,11 14,10.07 14,9V8H19M21,19A2,2 0 0,1 19,21H5A2,2 0 0,1 3,19V15H10V16C10,17.07 10.93,18 12,18C13.07,18 14,17.07 14,16V15H21V19M5,17V19H9.4C8.8,18.47 8.34,17.78 8.13,17H5M19,19V17H15.87C15.66,17.78 15.2,18.47 14.6,19H19Z" /></svg>
